X:10407
T:Fortuna-Marsch G (mr00046)
%%MIDI program 21
M:2/4
L:1/8
K:G %%MIDI gchordon
G/2G/2 | "G"G2zB/2B/2 | B zzd/2d/2 | "D7"dD FA | d2z2 |: "G"B3d | G3B | "C"E3 F/2G/2 | \
"G"DB AG |
"D7"A2B2 | c2d2 | "G"e2 d>c | B2z2 | B3d | G3B | "C"E3 F/2G/2 | \
"G"DB AB | "D7"c2d2 | e3F | "G"GF GF |
GG G2 :: "G"D/2D/2D/2D/2 DG | "D7"F2A2 | \
D/2D/2D/2D/2 DA | "G"G2B2 | "C"E/2E/2E/2E/2 EG | "G"DG B2 | "D7"d2 FA |
"G"d2 GB | D/2D/2D/2D/2 DG | "D7"F2A2 | \
D/2D/2D/2D/2 DA | "G"G2"G7"B2 | "Am/C"AB c/2c/2c | "G/D"GA B/2B/2B | "D7"c/2c/2c F/2F/2F | "G"GG Gz :| 

